assets/icons/compass.svg

<?xml version="1.0" encoding="UTF-8" standalone="no"?>
<svg viewBox="0 0 24 24" height="24" id="svg7384" version="1.1" width="24" sodipodi:docname="compass.svg" inkscape:version="1.1.2 (08b2f3d93c, 2022-04-05)"
   xmlns:inkscape="http://www.inkscape.org/namespaces/inkscape"
   xmlns:sodipodi="http://sodipodi.sourceforge.net/DTD/sodipodi-0.dtd"
   xmlns="http://www.w3.org/2000/svg"
   xmlns:svg="http://www.w3.org/2000/svg"
   xmlns:rdf="http://www.w3.org/1999/02/22-rdf-syntax-ns#"
   xmlns:cc="http://creativecommons.org/ns#"
   xmlns:dc="http://purl.org/dc/elements/1.1/">
   <sodipodi:namedview id="namedview22" pagecolor="#ffffff" bordercolor="#666666" borderopacity="1.0" inkscape:pageshadow="2" inkscape:pageopacity="0.0" inkscape:pagecheckerboard="0" showgrid="false" inkscape:zoom="16" inkscape:cx="9.09375" inkscape:cy="10.9375" inkscape:window-width="1920" inkscape:window-height="1043" inkscape:window-x="1920" inkscape:window-y="0" inkscape:window-maximized="1" inkscape:current-layer="svg7384">
      <inkscape:grid type="xygrid" id="grid839" />
   </sodipodi:namedview>
   <metadata id="metadata20854">
      <rdf:RDF>
         <cc:Work rdf:about="">
            <dc:format>image/svg+xml</dc:format>
            <dc:type rdf:resource="http://purl.org/dc/dcmitype/StillImage" />
         </cc:Work>
      </rdf:RDF>
   </metadata>
   <defs id="defs7386">
      <linearGradient id="linearGradient5606" inkscape:swatch="solid">
         <stop id="stop5608" offset="0" style="stop-color:#000000;stop-opacity:1;" />
      </linearGradient>
      <linearGradient id="linearGradient4526" inkscape:swatch="solid">
         <stop id="stop4528" offset="0" style="stop-color:#ffffff;stop-opacity:1;" />
      </linearGradient>
      <linearGradient id="linearGradient3600-4" inkscape:swatch="gradient">
         <stop id="stop3602-7" offset="0" style="stop-color:#f4f4f4;stop-opacity:1" />
         <stop id="stop3604-6" offset="1" style="stop-color:#dbdbdb;stop-opacity:1" />
      </linearGradient>
   </defs>
   <path id="path1138" style="color:#000000;display:inline;overflow:visible;visibility:visible;fill:#808080;fill-opacity:1;fill-rule:nonzero;stroke:none;stroke-width:3.74851;marker:none;enable-background:accumulate" d="M 12 2 A 10 10 0 0 0 2 12 A 10 10 0 0 0 12 22 A 10 10 0 0 0 22 12 A 10 10 0 0 0 12 2 z M 12 3 A 9 9 0 0 1 21 12 A 9 9 0 0 1 12 21 A 9 9 0 0 1 3 12 A 9 9 0 0 1 12 3 z M 17.302734 6.6972656 C 15.115646 7.4936156 12.559706 8.7907969 11.160156 9.5292969 C 10.872856 9.6690844 10.607331 9.8583485 10.378906 10.085938 C 10.329 10.135844 10.28181 10.187833 10.236328 10.240234 C 10.185253 10.284717 10.134634 10.330209 10.085938 10.378906 C 9.858349 10.607331 9.6690844 10.872856 9.5292969 11.160156 C 8.7907969 12.559706 7.4936031 15.115659 6.6972656 17.302734 C 8.9328906 16.488734 11.587004 15.138544 12.962891 14.410156 C 13.203591 14.278181 13.425594 14.109389 13.621094 13.914062 C 13.670345 13.864818 13.716777 13.813395 13.761719 13.761719 C 13.813395 13.716777 13.864818 13.670345 13.914062 13.621094 C 14.109388 13.425594 14.27818 13.205544 14.410156 12.964844 C 15.138556 11.588956 16.488721 8.9328906 17.302734 6.6972656 z M 12 11 A 1 1 0 0 1 13 12 A 1 1 0 0 1 12 13 A 1 1 0 0 1 11 12 A 1 1 0 0 1 12 11 z " />
</svg>

<svg height="24" width="24" xmlns="http://www.w3.org/2000/svg"><path style="color:#000;display:inline;overflow:visible;visibility:visible;fill:gray;fill-opacity:1;fill-rule:nonzero;stroke:none;stroke-width:3.74851;marker:none;enable-background:accumulate" d="M12 2A10 10 0 0 0 2 12a10 10 0 0 0 10 10 10 10 0 0 0 10-10A10 10 0 0 0 12 2zm0 1a9 9 0 0 1 9 9 9 9 0 0 1-9 9 9 9 0 0 1-9-9 9 9 0 0 1 9-9zm5.303 3.697c-2.187.797-4.743 2.094-6.143 2.832a2.923 2.923 0 0 0-.924.711c-.05.045-.101.09-.15.139a2.923 2.923 0 0 0-.557.781c-.738 1.4-2.035 3.956-2.832 6.143 2.236-.814 4.89-2.164 6.266-2.893a2.925 2.925 0 0 0 .799-.648 2.914 2.914 0 0 0 .648-.797c.729-1.376 2.079-4.032 2.893-6.268zM12 11a1 1 0 0 1 1 1 1 1 0 0 1-1 1 1 1 0 0 1-1-1 1 1 0 0 1 1-1z"/></svg>
